X: 11
T: What care I for whom she be
%R: jig
B: "Twenty Four Country Dances for the Year 1780", Thomas Skillern, ed. p.6 #1
F: http://www.vwml.org/browse/browse-collections-dance-tune-books/browse-skillerns1780#
Z: 2014 John Chambers <jc:trillian.mit.edu>
M: 6/8
L: 1/8
K: F
|:\
f2F F>GF | a2F F>GF | GAB cBA | GAF EDC |\
a2F F>GF | a2F F>GF | c>cd cAF | G3 F3 :|
|:\
GA=B c2c | def edc | g2e f2d | edc =BAG |\
g2e f2d | edc =BAG | Afe dc=B | c2C C3 |
f2F F>GF | a2F F>GF | GAB cBA | GAF EDC |\
a2F F>GF | a2F F>GF | c>dc cAF | G3 F3 :|
%%begintext align
%%   Cast down one Cu: Hands four round with the 3d .|. Cast up
%% again & hands four round at top :|. Cross over two Cu: lead
%% up to the top Cast off Set with the top Cu. and Right and
%% Left .|: Hands Six round lead thro' the top Cast off thro'
%% the bottom Cast up and turn your Partner :|:
%%endtext
